public/resources/images/icon-exp-sketch.svg

<svg data-name="Layer 1" xmlns="http://www.w3.org/2000/svg" viewBox="0 0 32 32"><path d="M22.94 13.358l-7.018-8.326-6.929 8.326zm.088.465H8.841L16 28.786zm-14.457-7.6l-4.792 7.083h4.478zm15.172 7.083h4.478l-4.792-7.083zm-6.794 14.515l11.226-14.05h-4.506zM8.306 13.772H3.825L14.7 27.385zm.4-.872l6.632-7.922-6.311.693-.307 6.919zm14.158-7.229l-6.311-.693 6.632 7.922z" fill="#979797"/></svg>

<svg id="Layer_1" data-name="Layer 1" xmlns="http://www.w3.org/2000/svg" viewBox="0 0 32 32">
  <title>Artboard 3 copy 10</title>
  <path d="M22.94,13.358,15.922,5.032,8.993,13.358Zm.088.465H8.841L16,28.786ZM8.571,6.223,3.779,13.306H8.257Zm15.172,7.083h4.478L23.429,6.223ZM16.949,27.821l11.226-14.05H23.669ZM8.306,13.772H3.825L14.7,27.385Zm.4-.872,6.632-7.922-6.311.693L8.72,12.59ZM22.864,5.671l-6.311-.693L23.185,12.9Z" fill="#979797"/>
</svg>
